X: 4
T: The Yellow Wattle
R: jig
M: 6/8
L: 1/8
K: Dmix
|:ded c3|ded c3|ded cde|dcA GED|
ded c3|ded cAG|A3 ABc|1 dcA GAc:|2 dcA GED||
|:dcA AGE|A3 ABc|dcA ABc|dcA GED|
dcA AGE|A3 AGE|D3 cde|1 dcA GED:|2 dcA GAc||


Tune 1237	Setting 26574

